X: 392
T: Boli liangmian guang
%%abc-version 2.0
%%abcx-abcm2ps-target-version 5.9.1 (29 Sep 2008)
%%abc-creator hum2abc beta
%%abcx-conversion-date 2013/10/02 07:52:30
%%abc-edited-by Helmut Schaffrath
%%humdrum-veritas 1412728437
%%humdrum-veritas-data 2982200604
%%continueall 1
%%barnumbers 0
L: 1/8
M: 2/4
K: G
d> d d e [I:setbarnb 1]| 
g ed2 | 
d> d d e | 
g ed2 | 
g ed2 | 
g ed2 | 
E G B A | 
G4 | 
A GA2- | 
A2A B | 
d G F E | 
D4 | 
G F A E | 
D4 |]  



